X: 272
M: 2/4
L: 1/16
K: G
|:\
|:\
"2 F"dcde d2g2 | !+!B4 B4 | G2d2G2d2 | e4 e4 |\
c2e2 e2dc | B2d2 g4 | GABc !+!B2AB | G4 G4 :|

